
		
prologues := 3;
outputformat := "svg";
outputtemplate := "%j.svg";
beginfig(1);
	z0 = (0,0);
	z1 = (0,100);
	z2 = (100,100);
	z3 = (200,100);
	z4 = (0,0);
	z5 = (100,0);
	z6 = (200,0);

	

endfig;
end

